!!!!SEGMENT: pl-sa--231-a-vi-35--008_anonim--litania-salus-infirmorum.krn
!!!cenid: 17xx:1403
!!!COM: Anonim
!!!COM-rismID: pe30004985
!!!CDT:
!!!CNT:
!!!OPR: Litania
!!!OTL: Salus infirmorum
!!!OMV: 008
!!!PDT:
!!!AGN: Sacred; Mass
!!!SMS-siglum: PL-SA
!!!SMS-shelfmark: 231/A VI 35
!!!SMS-shelfwork: 001-008 M
!!!SMS-variant:
!!!SMS-altvar:
!!!NIFC-rismSourceID: 1001039070
!!!NIFC-rismChildID: 1001039070
!!!NIFC-islandoraID:
!!!URL-pdf-islandora:
!!!URL-scan: https://bc.bdsandomierz.pl/dlibra/publication/1585/edition/1553/content @EN{Scan in the Sandomierz Diocese Digital Library} @PL{Skany w portalu Cyfrowa Biblioteka Diecezjalna w Sandomierzu}
!!!ONB-nifc: UWAGA: części Litanii: 1. Sinfonia, 2. Kyrie, 3. Pater de caelis, 4. Sancta Maria, 5. Mater amabilis, 6. Speculum iustitiae, 7. Rosa mystica, 8. Salus infirmorum, 9. Regina angelorum, 10. Agnus Dei. Uwaga: wpisać oba teksty.
!!!AIN: 1 bass 2 cor 1 oboe 1 soprn 1 tenor 2 violn
!!!key: g
**kern	**dynam	**kern	**dynam	**kern	**dynam	**kern	**text	**text	**kern	**text	**text	**kern	**text	**text	**kern	**kern	**kern	**dynam
*	*	*group3	*	*group3	*	*group2	*	*	*group2	*	*	*group2	*	*	*group1	*group1	*	*
*part9	*part9	*part8	*part8	*part7	*part7	*part6	*part6	*part6	*part5	*part5	*part5	*part4	*part4	*part4	*part3	*part2	*part1	*part1
*staff9	*	*staff8	*	*staff7	*	*staff6	*staff6	*staff6	*staff5	*staff5	*staff5	*staff4	*staff4	*staff4	*staff3	*staff2	*staff1	*
*I"Fondamento.	*	*I"Violino Secundo.	*	*I"Violino Primo	*	*I"Baſso.	*	*	*I"Tenore	*	*	*I"Canto	*	*	*I"Cornu Secundo. ex. G.	*I"Cornu Primo ex G	*I"Oböa Prima	*
*I'fund	*	*I'vl 2	*	*I'vl 1	*	*I'B	*	*	*I'T	*	*	*I'S	*	*	*I'cor 2	*I'cor 1	*I'ob 1	*
*	*	*Ivioln	*	*Ivioln	*	*Ibass	*	*	*Itenor	*	*	*Isoprn	*	*	*Icor	*Icor	*Ioboe	*
*	*	*ICstr	*	*ICstr	*	*ICvox	*	*	*ICvox	*	*	*ICvox	*	*	*ICbras	*ICbras	*ICww	*
*IGcont	*	*	*	*	*	*	*	*	*	*	*	*	*	*	*	*	*	*
*clefF4	*	*clefG2	*	*clefG2	*	*clefF4	*	*	*clefC4	*	*	*clefC1	*	*	*clefG2	*clefG2	*clefG2	*
*	*	*	*	*	*	*	*	*	*	*	*	*	*	*	*ITrd3c5	*ITrd3c5	*	*
*k[b-e-]	*	*k[b-e-]	*	*k[b-e-]	*	*k[b-e-]	*	*	*k[e-b-]	*	*	*k[b-e-]	*	*	*k[b-e-]	*k[b-e-]	*k[b-e-]	*
*g:	*	*g:	*	*g:	*	*g:	*	*	*g:	*	*	*g:	*	*	*g:	*g:	*g:	*
*M4/4	*	*M4/4	*	*M4/4	*	*M4/4	*	*	*M4/4	*	*	*M4/4	*	*	*M4/4	*M4/4	*M4/4	*
*met(c)	*	*met(c)	*	*met(c)	*	*met(c)	*	*	*met(c)	*	*	*met(c)	*	*	*met(c)	*met(c)	*met(c)	*
=1	=1	=1	=1	=1	=1	=1	=1	=1	=1	=1	=1	=1	=1	=1	=1	=1	=1	=1
!LO:TX:a:t=Tutti	!	!	!	!	!	!	!	!	!	!	!	!LO:TX:t=P:problem=znaki b- ee-	!	!	!	!	!	!
!LO:TX:a:rj:t=adagio	!	!LO:TX:a:t=adagio	!	!LO:TX:a:t=adagio.	!	!LO:TX:a:t=Adagio	!	!	!LO:TX:a:i:t=Ada&colon;	!	!	!LO:TX:a:t=adagio	!	!	!LO:TX:a:t=Salus Tacet	!LO:TX:a:t=Salus Tacet	!LO:TX:a:t=adagio.	!
8G\L	.	8b-\L	.	8dd\L	.	4G\	Sa-	Je-	4B-\	Sa-	Je-	4dd\	Sa-	Je-	1ryy	1ryy	8dd\L	.
8G\	.	8b-\	.	8dd\	.	.	.	.	.	.	.	.	.	.	.	.	8dd\	.
8G\	.	8b-\	.	8dd\	.	4G\	-luſ	-su	4B-\	-lus	-su	4dd\	-lus	-su	.	.	8dd\	.
8G\J	.	8b-\J	.	8dd\J	.	.	.	.	.	.	.	.	.	.	.	.	8dd\J	.
8En\L	.	8b-\L	.	8gg\L	.	8En\	in-	ca-	8B-\	in-	ca-	8gg\	in-	ca-	.	.	8gg\L	.
8E\	.	8b-\	.	8cc#X\	.	8E\	-fir-	-ſti-	8B-\	-fir-	-riſ-	8cc#X\	-fir-	-stiſ-	.	.	8cc#X\	.
8E\	.	8b-\	.	8cc#\	.	4E\	-mo-	-ſi-	4B-\	-mo-	-si-	4cc#\	-mo-	-si-	.	.	8cc#\	.
8E\J	.	8b-\J	.	8cc#\J	.	.	.	.	.	.	.	.	.	.	.	.	8cc#\J	.
=2	=2	=2	=2	=2	=2	=2	=2	=2	=2	=2	=2	=2	=2	=2	=2	=2	=2	=2
*2\right	*	*	*	*2\right	*	*2\right	*	*	*2\right	*	*	*2\right	*	*	*	*	*2\right	*
2F#X;\	.	2a;/	.	2dd;\	.	2F#X;\	-rum	-me	2A;\	-rum	-me	2dd;\	-rum	-me	1ryy	1ryy	2dd;\	.
2r	.	2r	.	2r	.	8.D\L	Re-	mi-	2r	.	.	2r	.	.	.	.	2r	.
.	.	.	.	.	.	16E-\Jk	.	.	.	.	.	.	.	.	.	.	.	.
.	.	.	.	.	.	16F#X\LL	.	.	.	.	.	.	.	.	.	.	.	.
.	.	.	.	.	.	16G\	.	.	.	.	.	.	.	.	.	.	.	.
.	.	.	.	.	.	16A\	.	.	.	.	.	.	.	.	.	.	.	.
.	.	.	.	.	.	16B-\JJ	.	.	.	.	.	.	.	.	.	.	.	.
=3	=3	=3	=3	=3	=3	=3	=3	=3	=3	=3	=3	=3	=3	=3	=3	=3	=3	=3
2r	.	2r	.	2r	.	8.c\	-fu-	-mi-	2r	.	.	2r	.	.	1ryy	1ryy	2r	.
.	.	.	.	.	.	16c\	-gi-	-se-	.	.	.	.	.	.	.	.	.	.
.	.	.	.	.	.	4c\	-um	-re-	.	.	.	.	.	.	.	.	.	.
4F#X\	.	8cc\L	.	8ee-\L	.	8F#X\	pec-	.	8c\	pec-	mi-	8ee-\	pec-	mi-	.	.	8ee-\L	.
.	.	(8cc\	.	(8ee-\	.	8F#\	-ca-	.	8c\	-ca-	.	8ee-\	-ca-	-se-	.	.	(8ee-\	.
4D\	.	8b-\	.	8dd\	.	4D\	-to-	-re	8B-\L	-to-	-se-	(8dd\L	-to-	-re-	.	.	8dd\	.
.	.	8a\J)	.	8ccn\J)	.	.	.	.	8A\J	.	.	8ccn\J)	.	-re	.	.	8cc\J)	.
=4	=4	=4	=4	=4	=4	=4	=4	=4	=4	=4	=4	=4	=4	=4	=4	=4	=4	=4
!LO:TX:t=P:problem=mixed beam	!	!	!	!	!	!	!	!	!	!	!	!	!	!	!	!	!	!
8G\L	.	8g/L	.	8b-\L	.	8G\	-rum	no-	8G/	-rum	-re-	8b-\	-rum	no-	1ryy	1ryy	8b-\L	.
8GG/	.	8b-/	.	8dd\	.	8G\	o-	.	8B-\	o-	-re	8dd\	o-	.	.	.	8dd\	.
8E-\	.	8a/	.	8cc\	.	8E-X\	-ra	.	8A\	-ra	.	8cc\	-ra	.	.	.	8cc\	.
8C\J	.	8g/J	.	8b-\J	.	8C\	pro	.	8G\	pro	no-	8b-\	pro	.	.	.	8b-\J	.
4D/	.	4gT/	.	4b-T\	.	4D\	no-	.	4G/	no-	.	4b-T\	no-	.	.	.	4b-T\	.
.	.	.	.	8qqb-/	.	.	.	.	.	.	.	.	.	.	.	.	8qqb-/	.
!LO:TX:a:t=Solo	!	!	!	!	!	!	!	!	!	!	!	!	!	!	!	!	!	!
8D/L	.	4f#X/	.	4a\	.	4D\	-bis	-bis	4F#X/	-bis	-bis	4a\	-bis	-bis	.	.	4a\	.
8C/J	.	.	.	.	.	.	.	.	.	.	.	.	.	.	.	.	.	.
!	!	!	!	!	!	!	!	!	!LO:LB:g=original	!	!	!	!	!	!	!	!	!
=5	=5	=5	=5	=5	=5	=5	=5	=5	=5	=5	=5	=5	=5	=5	=5	=5	=5	=5
!	!LO:DY:a:rj:t=pia	!	!LO:DY:a:t=pia.	!	!LO:DY:a:t=pia	!	!	!	!	!	!	!	!	!	!	!	!	!
8BB-/L	p	8dd\	p	(16bb-\LL	p	0r	.	.	8d\	Con-	mi-	8ff\	con-	mi-	1ryy	1ryy	0r	.
.	.	.	.	16ff\JJ)	.	.	.	.	.	.	.	.	.	.	.	.	.	.
8BB-/	.	4.dd\	.	4.ff\	.	.	.	.	4.d\	-so-	-se-	4.ff\	-ſo-	-se-	.	.	.	.
8BB-/	.	.	.	.	.	.	.	.	.	.	.	.	.	.	.	.	.	.
8BB-/J	.	.	.	.	.	.	.	.	.	.	.	.	.	.	.	.	.	.
8F\L	.	(16cc\LL	.	(16ee-\LL	.	.	.	.	16c\LL	-la-	-re-	(16ee-\LL	-la-	-re-	.	.	.	.
.	.	16b-\JJ)	.	16dd\JJ)	.	.	.	.	16B-\JJ	.	.	16dd\JJ)	.	.	.	.	.	.
.	.	8qqb-/	.	8qqdd/	.	.	.	.	8qqB-/	.	.	8qqdd/	.	.	.	.	.	.
8F\	.	4.cc\	.	4.ee-\	.	.	.	.	4.c\	-trix	-re	4.ee-\	-trix	-re	.	.	.	.
8F\	.	.	.	.	.	.	.	.	.	.	.	.	.	.	.	.	.	.
8F\J	.	.	.	.	.	.	.	.	.	.	.	.	.	.	.	.	.	.
=6	=6	=6	=6	=6	=6	=6	=6	=6	=6	=6	=6	=6	=6	=6	=6	=6	=6	=6
8F\L	.	(16ee-\LL	.	(16ccc\LL	.	.	.	.	8c\	af-	mi-	8ee-\	af-	mi-	1ryy	1ryy	.	.
.	.	16cc\JJ)	.	16ee-\JJ)	.	.	.	.	.	.	.	.	.	.	.	.	.	.
8F\	.	4.cc\	.	4.ee-\	.	.	.	.	4.c\	-flic-	-se-	4.ee-\	-fli-	-se-	.	.	.	.
8F\	.	.	.	.	.	.	.	.	.	.	.	.	.	.	.	.	.	.
8F\J	.	.	.	.	.	.	.	.	.	.	.	.	.	.	.	.	.	.
8BB-/L	.	(16b-\LL	.	(16dd\LL	.	.	.	.	(16B-\LL	-to-	-re-	(16dd\LL	-cto-	-re-	.	.	.	.
.	.	16a\JJ)	.	16cc\JJ)	.	.	.	.	16A\JJ)	.	.	16cc\JJ)	.	.	.	.	.	.
.	.	8qqa/	.	8qqcc/	.	.	.	.	8qqA/	.	.	8qqcc/	.	.	.	.	.	.
8BB-/	.	4.b-\	.	4.dd\	.	.	.	.	4.B-\	-rum	-re	4.dd\	-rum	-re	.	.	.	.
8BB-/	.	.	.	.	.	.	.	.	.	.	.	.	.	.	.	.	.	.
8BB-/J	.	.	.	.	.	.	.	.	.	.	.	.	.	.	.	.	.	.
!	!	!	!	!	!	!	!	!	!	!	!	!LO:LB:g=original	!	!	!	!	!	!
=7	=7	=7	=7	=7	=7	=7	=7	=7	=7	=7	=7	=7	=7	=7	=7	=7	=7	=7
!LO:TX:a:t=Tutti	!	!	!	!	!LO:DY:a:t=for	!	!	!	!	!	!	!	!	!	!	!	!	!LO:DY:a:t=for.
8BB-/L	.	8f/L	.	4dd\	f	4BB-/	o-	no-	4F/	o-	no-	4dd\	o-	no-	1ryy	1ryy	4dd\	f
8BB-/	.	8f/	.	.	.	.	.	.	.	.	.	.	.	.	.	.	.	.
8E-/	.	8g/	.	(8cc\L	.	8E-\	-ra	.	8G/	-ra	.	8cc\	-ra	.	.	.	(8cc\L	.
8E-/J	.	8g/J	.	8b-\J)	.	8E-\	pro	.	8G/	pro	.	8b-\	pro	.	.	.	8b-\J)	.
.	.	8qqd/	.	8qqb-/	.	.	.	.	.	.	.	.	.	.	.	.	8qqb-/	.
8F\L	.	4c/	.	4a/	.	8F\L	no-	.	4c\	no-	.	4a\	no-	.	.	.	4a\	.
8E-\	.	.	.	.	.	8E-\J	.	.	.	.	.	.	.	.	.	.	.	.
!	!	!LO:TX:t=P:problem=mixed beam	!	!	!	!	!	!	!	!	!	!	!	!	!	!	!	!
8D\	.	8d/L	.	8b-\L	.	8D\	-bis	.	8d\	-biſ	.	8b-\	-bis	.	.	.	8b-\L	.
8G\J	.	8cc\J	.	8ee-\J	.	8G\	pro	.	8c\	pro	.	8ee-\	pro	.	.	.	8ee-\J	.
!	!	!	!	!LO:LB:g=original	!	!LO:LB:g=original	!	!	!	!	!	!	!	!	!	!	!	!
=8	=8	=8	=8	=8	=8	=8	=8	=8	=8	=8	=8	=8	=8	=8	=8	=8	=8	=8
4F\	.	4b-\	.	4dd\	.	2F\	no-	.	4B-\	no-	.	4dd\	no-	.	1ryy	1ryy	4dd\	.
4FF/	.	4at\	.	4ccT\	.	.	.	.	4A\	.	.	4ccT\	.	.	.	.	4ccT\	.
4BB-/	.	4b-\	.	4b-\	.	4BB-/	-bis	-bis	4B-\	-bis	-bis	4b-\	-biſ	-bis	.	.	4b-\	.
4r	.	4r	.	4r	.	4r	.	.	4r	.	.	4r	.	.	.	.	4r	.
!LO:LB:g=original	!	!LO:LB:g=original	!	!	!	!	!	!	!LO:LB:g=original	!	!	!	!	!	!	!	!	!
=9	=9	=9	=9	=9	=9	=9	=9	=9	=9	=9	=9	=9	=9	=9	=9	=9	=9	=9
!	!	!	!LO:DY:a:t=for.	!	!	!	!	!	!	!	!	!	!	!	!	!	!	!
8G\L	.	8b-\L	f	8dd\L	.	2G\	qu-	Je-	2B-\	au-	Jes-	2dd\	au-	Jesu	1ryy	1ryy	8dd\L	.
8G\	.	8b-\	.	8dd\	.	.	.	.	.	.	.	.	.	.	.	.	8dd\	.
8G\	.	8b-\	.	8dd\	.	.	.	.	.	.	.	.	.	.	.	.	8dd\	.
8G\J	.	8b-\J	.	8dd\J	.	.	.	.	.	.	.	.	.	.	.	.	8dd\J	.
8G\L	.	8cc\L	.	8ee-\L	.	8G\	-xi-	-su	8c\	-xi-	-u	8ee-\	-xi-	a-	.	.	8ee-\L	.
8G\	.	8b-\	.	8dd\	.	8G\	-li-	a-	8B-\	-li-	.	8dd\	-li-	-mor	.	.	8dd\	.
8G\	.	8b-\	.	8dd\	.	4G\	-um	-mor	4B-\	-um	.	4dd\	-um	nos-	.	.	8dd\	.
8G\J	.	8b-\J	.	8dd\J	.	.	.	.	.	.	.	.	.	.	.	.	8dd\J	.
!	!	!	!	!	!	!	!	!	!	!	!	!	!	!	!	!	!LO:LB:g=original	!
=10	=10	=10	=10	=10	=10	=10	=10	=10	=10	=10	=10	=10	=10	=10	=10	=10	=10	=10
8En\L	.	8b-\L	.	8gg\L	.	8En\	Chri-	no-	8B-\	Chri-	a-	8gg\	Chri-	-ter	1ryy	1ryy	8gg\L	.
8E\	.	8b-\	.	8cc#X\	.	16E\	-sti-	-ster	16B-\	-sti-	-mor	16cc#X\	-sti-	mi-	.	.	8cc#X\	.
.	.	.	.	.	.	16E\	-a-	mi-	16B-\	-a-	.	16cc#\	-a-	-se-	.	.	.	.
8E\	.	8b-\	.	8cc#\	.	4E\	-no-	-sere	4B-\	-no-	nos-	4cc#\	-no-	-re-	.	.	8cc#\	.
8E\J	.	8b-\J	.	8cc#\J	.	.	.	.	.	.	.	.	.	.	.	.	8cc#\J	.
.	.	.	.	8qqcc#/	.	.	.	.	.	.	.	8qqcc#/	.	.	.	.	8qqcc#/	.
2F#X;\	.	2a;/	.	2dd;\	.	2F#X;\	-rum	-re	2A\	-rum	-ter	2dd;\	-rum	-re	.	.	2dd;\	.
=11	=11	=11	=11	=11	=11	=11	=11	=11	=11	=11	=11	=11	=11	=11	=11	=11	=11	=11
4d\	.	4a/	.	4ff#X\	.	4d\	O-	re-	4A\	o-	mi-	4ccn\	o-	mi-	1ryy	1ryy	4ff#X\	.
!	!	!	!LO:DY:a:t=pia	!	!	!	!	!	!	!	!	!	!	!	!	!	!	!
4D\	.	8a/L	p	8ff#\L	.	4D\	-ra	-re	8A\	-ra	-se-	8cc\	-ra	-se-	.	.	8ff#\	.
!	!	!	!	!	!LO:DY:a:t=pia	!	!	!	!	!	!	!	!	!	!	!	!	!
.	.	8a/J	.	8ccn\J	p	.	.	.	8A\	pro	.	8cc\	pro	.	.	.	8r	.
2r	.	(8a/L	.	(8cc\L	.	2r	.	.	8A\L	no-	-re-	(8cc\L	no-	-re-	.	.	2r	.
.	.	8g/J)	.	8b-\J)	.	.	.	.	8G\J	.	.	8b-\J)	.	.	.	.	.	.
.	.	4a/	.	4cc\	.	.	.	.	4A\	-bis	-re	4cc\	-biſ	-re	.	.	.	.
=12	=12	=12	=12	=12	=12	=12	=12	=12	=12	=12	=12	=12	=12	=12	=12	=12	=12	=12
!	!	!	!LO:DY:a:rj:t=for	!	!LO:DY:a:t=for.	!	!	!	!	!	!	!	!	!	!	!	!	!
4d\	.	4a/	f	4ff#X\	f	4d\	O-	mi-	4A\	o-	mi-	4cc\	o-	mi-	1ryy	1ryy	4ff#X\	.
4D\	.	8a/L	.	8ff#\L	.	4D\	-ra	-se-	8A\	-ra	-se-	8cc\	-ra	-se-	.	.	8ff#\	.
!	!	!	!LO:DY:a:t=pia	!	!LO:DY:a:t=pia.	!	!	!	!	!	!	!	!	!	!	!	!	!
.	.	8a/J	p	8cc\J	p	.	.	.	8A\	pro	.	8cc\	pro	.	.	.	8r	.
!	!	!	!	!	!	!	!	!	!	!	!	!LO:LB:g=original	!	!	!	!	!	!
2r	.	(8a/L	.	(8cc\L	.	2r	.	.	8A\L	no-	-re-	8cc\L	no-	-re-	.	.	2r	.
.	.	8g/J)	.	8b-\J)	.	.	.	.	8G\J	.	.	8b-\J	.	.	.	.	.	.
.	.	4a/	.	4cc\	.	.	.	.	4A\	-bis	-re	4cc\	-bis	-re	.	.	.	.
!	!	!	!	!	!	!	!	!	!LO:LB:g=original	!	!	!	!	!	!	!	!	!
=13	=13	=13	=13	=13	=13	=13	=13	=13	=13	=13	=13	=13	=13	=13	=13	=13	=13	=13
!	!	!	!LO:DY:a:rj:t=for	!	!LO:DY:a:rj:t=for	!	!	!	!	!	!	!	!	!	!	!	!	!
8G\L	.	8b-\L	f	4dd\	f	8G\L	O-	-re-	(8B-\L	o-	mi-	4dd\	o-	mi-	1ryy	1ryy	4dd\	.
8A\	.	8cc\	.	.	.	8A\J	.	.	8c\J)	.	.	.	.	.	.	.	.	.
8B-\	.	8dd\	.	4gg\	.	8B-\L	-ra	-re	(8d\L	-ra	-se-	4gg\	-ra	-se-	.	.	4gg\	.
8c\J	.	8ee-\J	.	.	.	8c\J	.	.	8e-\J)	.	.	.	.	.	.	.	.	.
.	.	8qqb-/	.	8qqgg/	.	.	.	.	.	.	.	.	.	.	.	.	8qqgg/	.
8d\L	.	4a/	.	4ff#Xt\	.	8d\L	o-	.	4A\	o-	-re-	4ff#X\	o-	-re-	.	.	4ff#X\	.
8c\	.	.	.	.	.	8c\J	.	.	.	.	.	.	.	.	.	.	.	.
8B-\	.	8b-/L	.	8gg\L	.	8B-\	-ra	.	8B-\	-ra	-re	8gg\	-ra	.	.	.	8gg\L	.
8c\J	.	8a/J	.	8cc\J	.	8c\	pro	.	8A\	pro	.	8cc\	pro	-re	.	.	8cc\J	.
=14	=14	=14	=14	=14	=14	=14	=14	=14	=14	=14	=14	=14	=14	=14	=14	=14	=14	=14
4d\	.	4g/	.	4b-/	.	4d\	no-	no-	4G/	no-	no-	4b-\	no-	no-	1ryy	1ryy	4b-/	.
4D\	.	4f#Xt/	.	4a/	.	4D\	.	.	4F#X/	.	.	4at\	.	.	.	.	4a/	.
!	!	!	!LO:DY:a:t=pia	!LO:TX:t=P:problem=mixed beam	!LO:DY:a:t=pia.	!	!	!	!	!	!	!	!	!	!	!	!	!
4G\	.	8g/L	p	8g/L	p	4A\	-biſ	-bis	4G/	-bis	-bis	4g\	-biſ	-bis	.	.	4g/	.
.	.	(16b-/L	.	(16dd\L	.	.	.	.	.	.	.	.	.	.	.	.	.	.
.	.	16cc/JJ)	.	16ee-\JJ)	.	.	.	.	.	.	.	.	.	.	.	.	.	.
!LO:TX:a:t=Solo	!	!	!	!	!	!	!	!	!	!	!	!	!	!	!	!	!	!
8r	.	8b-/L	.	8dd\L	.	4r	.	.	4r;	.	.	4r	.	.	.	.	4r	.
!	!LO:DY:a:t=pia	!	!	!	!	!	!	!	!	!	!	!	!	!	!	!	!	!
8D\	p	8a/J	.	8cc\J	.	.	.	.	.	.	.	.	.	.	.	.	.	.
=15	=15	=15	=15	=15	=15	=15	=15	=15	=15	=15	=15	=15	=15	=15	=15	=15	=15	=15
4G\	.	8g/L	.	8b-/L	.	1r;;	.	.	1r	.	.	1r;	.	.	1ryy	1ryy	1r;	.
.	.	(16d/L	.	(16b-/L	.	.	.	.	.	.	.	.	.	.	.	.	.	.
.	.	16e-/JJ)	.	16cc/JJ)	.	.	.	.	.	.	.	.	.	.	.	.	.	.
8r	.	8d/L	.	8b-/L	.	.	.	.	.	.	.	.	.	.	.	.	.	.
8D/	.	8c/J	.	8a/J	.	.	.	.	.	.	.	.	.	.	.	.	.	.
.	.	8qqc/	.	8qqa/	.	.	.	.	.	.	.	.	.	.	.	.	.	.
4GG;</	.	4B-;/	.	4g;/	.	.	.	.	.	.	.	.	.	.	.	.	.	.
4r	.	4r	.	4r	.	.	.	.	.	.	.	.	.	.	.	.	.	.
==;	==	==;	==	==;	==	==	==	==	==	==	==	==;	==	==	==	==	==;	==
*-	*-	*-	*-	*-	*-	*-	*-	*-	*-	*-	*-	*-	*-	*-	*-	*-	*-	*-
!!!system-decoration: s1[(g1)][(g2)][(g3)]s9
!!!RDF**kern: < = below
!!!ENC: Andrzej Gręziak
!!!END: 2020-12-02
!!!ENC: Marta Lawrence
!!!END: 2022-03-06
!!!YEC: Copyright 2022 Narodowy Instytut Fryderyka Chopina (https://polishscores.org)
!!!YEM: License CC-BY-4.0 (https://creativecommons.org/licenses/by/4.0)
